svgs/thin/truck.svg

<svg xmlns="http://www.w3.org/2000/svg" viewBox="0 0 640 512"><!-- Font Awesome Pro 6.0.0-alpha2 by @fontawesome - https://fontawesome.com License - https://fontawesome.com/license (Commercial License) --><path d="M632 400H608V237.25C608 226.562 603.844 216.531 596.281 208.969L495.031 107.719C487.594 100.266 477.281 96 466.75 96H416V48C416 21.49 394.508 0 368 0H48C21.492 0 0 21.49 0 48V368C0 394.51 21.492 416 48 416H72.805C72.562 418.676 72 421.26 72 424C72 472.602 111.398 512 160 512S248 472.602 248 424C248 421.26 247.438 418.676 247.195 416H392.805C392.562 418.676 392 421.26 392 424C392 472.602 431.398 512 480 512S568 472.602 568 424C568 421.26 567.473 418.67 567.191 416H632C636.406 416 640 412.422 640 408S636.406 400 632 400ZM160 496C120.301 496 88 463.701 88 424S120.301 352 160 352S232 384.299 232 424S199.699 496 160 496ZM400 387.75C398.219 391.668 396.93 395.801 395.734 400H244.266C233.766 363.146 200.223 336 160 336S86.234 363.146 75.734 400H48C30.355 400 16 385.645 16 368V48C16 30.355 30.355 16 48 16H368C385.645 16 400 30.355 400 48V387.75ZM416 112H466.75C473.062 112 479.25 114.562 483.719 119.031L584.969 220.281C586.035 221.348 586.605 222.76 587.445 224H416V112ZM480 496C440.301 496 408 463.701 408 424S440.301 352 480 352S552 384.299 552 424S519.699 496 480 496ZM592 400H564.203C553.703 363.156 520.211 336 480 336C454.695 336 432.055 346.826 416 363.926V240H592V400Z"/></svg>

<svg xmlns="http://www.w3.org/2000/svg" viewBox="0 0 640 512"><!--! Font Awesome Pro 6.0.0-alpha3 by @fontawesome - https://fontawesome.com License - https://fontawesome.com/license (Commercial License) --><path d="M632 400H608V237.3c0-10.69-4.156-20.72-11.72-28.28l-101.3-101.3C487.6 100.3 477.3 96 466.8 96H416V48C416 21.49 394.5 0 368 0h-320C21.49 0 0 21.49 0 48v320C0 394.5 21.49 416 48 416h24.8C72.56 418.7 72 421.3 72 424C72 472.6 111.4 512 160 512s88-39.4 88-88c0-2.74-.5625-5.324-.8047-8h145.6C392.6 418.7 392 421.3 392 424c0 48.6 39.4 88 88 88s88-39.4 88-88c0-2.74-.5273-5.33-.8086-8H632c4.406 0 8-3.578 8-8S636.4 400 632 400zM160 496c-39.7 0-72-32.3-72-72S120.3 352 160 352s72 32.3 72 72S199.7 496 160 496zM400 387.8C398.2 391.7 396.9 395.8 395.7 400H244.3C233.8 363.1 200.2 336 160 336s-73.77 27.15-84.27 64H48c-17.64 0-32-14.36-32-32v-320c0-17.64 14.36-32 32-32h320c17.64 0 32 14.36 32 32V387.8zM416 112h50.75c6.312 0 12.5 2.562 16.97 7.031l101.3 101.3C586 221.3 586.6 222.8 587.4 224H416V112zM480 496c-39.7 0-72-32.3-72-72S440.3 352 480 352s72 32.3 72 72S519.7 496 480 496zM592 400h-27.8c-10.5-36.84-43.99-64-84.2-64c-25.3 0-47.95 10.83-64 27.93V240h176V400z"/></svg>
